X: 1
T: Frank's Reel
C: John McCusker
R: reel
Z: 2006 John Chambers <jc:trillian.mit.edu>
M: C
L: 1/8
K: A
E2 "A"|\
"A"AcBA "D"F2 AF | "A"EFAB cABc |\
"D"~d3f "A"eAce | "F#m"f{g}aec "E"B2{cd}cB |
"A"AcBA "D"F2 AF | "A"EFAB cABc |\
"D"~d3f "A"ecAc | "E"BAGB [1 "A"A2 :|2 "A"A ||
"B1"|: e"(E7)"fg |\
"A"aAAg "D"AAfA | "A"effe cABc |\
"D"~d3f "A"ecAc |[1 "Bm"Bcde "E7"f :|[2 "E"BAGB "A"A ||
"B2"[| e"(E7)"fg |\
"A"aAAg "D"AAfA | "A"effe cABc |\
"D"~d3f "A"eAce | "F#m"f{g}aec "E"B2{cd}cB |
|\
"A"AcBA "D"F2 AF | "A"EFAB cABc |\
"D"~d3f "A"ecAc | "E"BAGB "A"A2 |]
